X:1
T:Alleluia! Sing to Jesus
T:Text: William C. Dix, 1866, alt. Tune: H. Ernest Nichol, 1905
T:87 87 D LOWELL www.hymnary.org/text/alleluia_sing_to_jesus_his_the_scepter
T:Alleluia! Sing to Jesus
T:This hymn is in the public domain. You may freely use this score for personal and congregational worship. If you reproduce the score, please credit Hymnary.org as the source. 
T:This hymn is in the public domain. You may freely use this score for personal and congregational worship. If you reproduce the score, please credit Hymnary.org as the source. 
Z:This hymn is in the public domain. You may freely use this score for personal and congregational worship. If you reproduce the score, please credit Hymnary.org as the source.
%%score ( 1 2 ) ( 3 4 )
L:1/8
M:4/4
K:Ab
V:1 treble nm="SOPRANO ALTO" snm="S. A."
V:2 treble 
V:3 bass nm="TENOR BASS" snm="T. B."
V:4 bass 
V:1
"^1""^2""^3" A3 E C2 E2 | A2 B2 c2 d2 | e3 A B2 c2 | B2 A2 G4 | A3 E C2 E2 | A2 B2 c2 G2 | %6
w: Al- le- lu- ia!|sing to Je- sus!|his the scep- ter,|his the throne;|Al- le- lu- ia!|his the tri- umph,|
w: Al- le- lu- ia!|not as or- phans|are we left in|sor- row now;|Al- le- lu- ia!|he is near us;|
w: Al- le- lu- ia!|heav- enly High Priest,|here on earth our|help, our stay;|Al- le- lu- ia!|hear the sin- ful|
 A3 B c2 BA | G2 F2 E4 | E2 E2 A3 G | F2 F2 B2 A2 | G2 G2 c3 B | A2 d2 B4 |1 A3 E C2 E2 | %13
w: his the vic- to- *|ry a- lone.|Hark! the songs of|peace- ful Zi- on|thun- der like a|might- y flood.|Je- sus, out of|
w: faith be- lieves, nor *|ques- tions how.|Though the cloud from|sight re- ceived him|when the for- ty|days were o'er,|shall our hearts for-|
w: cry to you from _|day to day.|In- ter- ces- sor,|Friend of sin- ners,|earth's Re- deem- er,|hear our plea,|where the songs of|
 A2 B2 c2 d2 | e3 A G2 F2 | E2 B2 A4 |] %16
w: ev- ery na- tion,|has re- deemed us|by his blood.|
w: get his prom- ise,|"I am with you|ev- er- more"?|
w: all the sin- less|sweep a- cross the|crys- tal sea.|
V:2
 A3 E C2 E2 | A2 G2 A2 G2 | A3 A G2 A2 | E2 =D2 E4 | A3 E C2 E2 | A2 F2 =E2 G2 | F3 F F2 GF | %7
 E2 =D2 E4 | E2 E2 E3 E | F2 E2 D2 =D2 | E2 E2 =E3 E | F2 F2 G4 |1 A3 E C2 E2 | A2 G2 A2 G2 | %14
 A3 E E2 D2 | C2 D2 C4 |] %16
V:3
 A,3 E, C,2 E,2 | A,2 E2 E2 E2 | E3 E E2 E2 | B,2 B,2 B,4 | A,3 E, C,2 E,2 | A,2 F,2 G,2 C2 | %6
 C3 C C2 C2 | B,2 A,2 G,4 | G,2 G,2 A,3 A, | A,2 A,2 B,2 B,2 | B,2 B,2 C3 C | C2 D2 E4 |1 %12
 A,3 E, C,2 E,2 | A,2 E2 E2 E2 | E3 E A,2 A,2 | A,2 G,2 A,4 |] %16
V:4
 x3 E, C,2 E,2 | A,2 E,2 A,2 B,2 | C3 C B,2 A,2 | G,2 F,2 E,4 | x3 E, C,2 E,2 | A,2 D,2 C,2 =E,2 | %6
 F,3 G, A,2 A,,2 | B,,2 B,,2 E,4 | E,2 D,2 C,3 C, | D,2 C,2 B,,2 B,,2 | E,2 D,2 C,3 C, | %11
 F,2 B,,2 E,4 |1 x3 E, C,2 E,2 | A,2 E,2 A,2 B,2 | C3 C, D,2 B,,2 | E,2 E,2 A,,4 |] %16

